resources/svg/sort-high-to-low.svg

<svg xmlns="http://www.w3.org/2000/svg" viewBox="0 0 15 15" fill="currentColor"><path fill-rule="evenodd" clip-rule="evenodd" d="M4.00001 13.2929V0H5.00001V13.2929L7.14645 11.1464L7.85356 11.8536L4.85356 14.8536C4.75979 14.9473 4.63262 15 4.50001 15C4.3674 15 4.24022 14.9473 4.14645 14.8536L1.14645 11.8536L1.85356 11.1464L4.00001 13.2929ZM11 1H10V0H11.5C11.7761 0 12 0.223858 12 0.5V6H13V7H10V6H11V1ZM9.00001 10C9.00001 8.89543 9.89544 8 11 8H11.8617C13.009 8 13.8191 9.12397 13.4563 10.2124L11.9743 14.6581L11.0257 14.3419L11.8063 12H11C9.89544 12 9.00001 11.1046 9.00001 10ZM12.1396 11L12.5076 9.89614C12.6545 9.45527 12.3264 9 11.8617 9H11C10.4477 9 10 9.44772 10 10C10 10.5523 10.4477 11 11 11H12.1396Z" fill="black"/></svg>

<svg xmlns="http://www.w3.org/2000/svg" viewBox="0 0 15 15" fill="currentColor"><path fill-rule="evenodd" clip-rule="evenodd" d="M4 13.293V0h1v13.293l2.146-2.147.708.708-3 3a.5.5 0 01-.708 0l-3-3 .708-.708L4 13.293zM11 1h-1V0h1.5a.5.5 0 01.5.5V6h1v1h-3V6h1V1zm-2 9a2 2 0 012-2h.862a1.68 1.68 0 011.594 2.212l-1.482 4.446-.948-.316.78-2.342H11a2 2 0 01-2-2zm3.14 1l.368-1.104A.68.68 0 0011.862 9H11a1 1 0 100 2h1.14z" fill="currentColor"/></svg>
